src/renderer/assets/payment-success-background1.svg

<?xml version="1.0" encoding="UTF-8"?>
<svg width="540px" height="327px" viewBox="0 0 540 327" version="1.1" xmlns="http://www.w3.org/2000/svg" xmlns:xlink="http://www.w3.org/1999/xlink">
    <!-- Generator: Sketch 59 (86127) - https://sketch.com -->
    <title>g1</title>
    <desc>Created with Sketch.</desc>
    <defs>
        <filter x="-15.5%" y="-21.2%" width="130.0%" height="142.5%" filterUnits="objectBoundingBox" id="filter-1">
            <feOffset dx="0" dy="3" in="SourceAlpha" result="shadowOffsetOuter1"></feOffset>
            <feGaussianBlur stdDeviation="2.5" in="shadowOffsetOuter1" result="shadowBlurOuter1"></feGaussianBlur>
            <feColorMatrix values="0 0 0 0 1   0 0 0 0 1   0 0 0 0 1  0 0 0 0.1 0" type="matrix" in="shadowBlurOuter1" result="shadowMatrixOuter1"></feColorMatrix>
            <feMerge>
                <feMergeNode in="shadowMatrixOuter1"></feMergeNode>
                <feMergeNode in="SourceGraphic"></feMergeNode>
            </feMerge>
        </filter>
        <filter x="-12.0%" y="-14.2%" width="124.0%" height="128.4%" filterUnits="objectBoundingBox" id="filter-2">
            <feOffset dx="0" dy="4" in="SourceAlpha" result="shadowOffsetOuter1"></feOffset>
            <feGaussianBlur stdDeviation="4" in="shadowOffsetOuter1" result="shadowBlurOuter1"></feGaussianBlur>
            <feColorMatrix values="0 0 0 0 0   0 0 0 0 0   0 0 0 0 0  0 0 0 0.1 0" type="matrix" in="shadowBlurOuter1" result="shadowMatrixOuter1"></feColorMatrix>
            <feMerge>
                <feMergeNode in="shadowMatrixOuter1"></feMergeNode>
                <feMergeNode in="SourceGraphic"></feMergeNode>
            </feMerge>
        </filter>
        <filter x="-14.2%" y="-18.3%" width="128.3%" height="136.6%" filterUnits="objectBoundingBox" id="filter-3">
            <feOffset dx="0" dy="1" in="SourceAlpha" result="shadowOffsetOuter1"></feOffset>
            <feGaussianBlur stdDeviation="1" in="shadowOffsetOuter1" result="shadowBlurOuter1"></feGaussianBlur>
            <feColorMatrix values="0 0 0 0 0   0 0 0 0 0   0 0 0 0 0  0 0 0 0.1 0" type="matrix" in="shadowBlurOuter1" result="shadowMatrixOuter1"></feColorMatrix>
            <feMerge>
                <feMergeNode in="shadowMatrixOuter1"></feMergeNode>
                <feMergeNode in="SourceGraphic"></feMergeNode>
            </feMerge>
        </filter>
        <path d="M159.757107,57 C160.005635,57 160.207107,57.2014719 160.207107,57.45 L160.207,68.5 L170.55,68.5 C170.798528,68.5 171,68.7014719 171,68.95 L171,79.05 C171,79.2985281 170.798528,79.5 170.55,79.5 L160.207,79.5 L160.207107,90.55 C160.207107,90.7985281 160.005635,91 159.757107,91 L149.657107,91 C149.408579,91 149.207107,90.7985281 149.207107,90.55 L149.207,79.5 L137.45,79.5 C137.201472,79.5 137,79.2985281 137,79.05 L137,68.95 C137,68.7014719 137.201472,68.5 137.45,68.5 L149.207,68.5 L149.207107,57.45 C149.207107,57.2014719 149.408579,57 149.657107,57 L159.757107,57 Z" id="path-4"></path>
        <filter x="-10.3%" y="-7.4%" width="120.6%" height="120.6%" filterUnits="objectBoundingBox" id="filter-5">
            <feOffset dx="0" dy="1" in="SourceAlpha" result="shadowOffsetOuter1"></feOffset>
            <feGaussianBlur stdDeviation="1" in="shadowOffsetOuter1" result="shadowBlurOuter1"></feGaussianBlur>
            <feComposite in="shadowBlurOuter1" in2="SourceAlpha" operator="out" result="shadowBlurOuter1"></feComposite>
            <feColorMatrix values="0 0 0 0 0   0 0 0 0 0   0 0 0 0 0  0 0 0 0.1 0" type="matrix" in="shadowBlurOuter1"></feColorMatrix>
        </filter>
    </defs>
    <g id="页面-1" stroke="none" stroke-width="1" fill="none" fill-rule="evenodd" opacity="0.7">
        <g id="Userinfo/Payment-Instruction/Style5/Success" transform="translate(0.000000, -43.000000)">
            <g id="background" transform="translate(-25.000000, 29.000000)">
                <g id="g1" transform="translate(0.000000, 16.000000)">
                    <g id="Icon---Playlist" filter="url(#filter-1)" opacity="0.072172619" transform="translate(0.000000, 151.000000)">
                        <path d="M85.1453642,55.9258448 C85.8906486,54.4926056 87.6566909,53.934908 89.0899301,54.6801924 L89.0899301,54.6801924 L107.182095,64.0881182 C107.797508,64.4081328 108.299372,64.9099967 108.619386,65.5254094 C109.47933,67.1791469 108.835833,69.2168881 107.182095,70.0768316 L107.182095,70.0768316 L89.0899301,79.4847574 C88.67313,79.7014935 88.2102573,79.8146482 87.7404734,79.8146482 C86.1250405,79.8146482 84.8154734,78.5050811 84.8154734,76.8896482 L84.8154734,76.8896482 L84.8154734,57.2753015 C84.8154734,56.8055176 84.9286281,56.342645 85.1453642,55.9258448 Z M69.75,58.625 C70.9926407,58.625 72,59.6323593 72,60.875 L72,68.75 C72,69.9926407 70.9926407,71 69.75,71 L2.25,71 C1.00735931,71 1.52179594e-16,69.9926407 0,68.75 L0,60.875 C-1.52179594e-16,59.6323593 1.00735931,58.625 2.25,58.625 L69.75,58.625 Z M101.250656,29.375 C102.493296,29.375 103.500656,30.3823593 103.500656,31.625 L103.500656,39.5 C103.500656,40.7426407 102.493296,41.75 101.250656,41.75 L2.25,41.75 C1.00735931,41.75 1.52179594e-16,40.7426407 0,39.5 L0,31.625 C-1.52179594e-16,30.3823593 1.00735931,29.375 2.25,29.375 L101.250656,29.375 Z M101.250656,0.125 C102.493296,0.125 103.500656,1.13235931 103.500656,2.375 L103.500656,10.25 C103.500656,11.4926407 102.493296,12.5 101.250656,12.5 L2.25,12.5 C1.00735931,12.5 1.52179594e-16,11.4926407 0,10.25 L0,2.375 C-1.52179594e-16,1.13235931 1.00735931,0.125 2.25,0.125 L101.250656,0.125 Z" id="Combined-Shape" fill-opacity="0.9" fill="#FFFFFF"></path>
                        <path d="M85.1453642,55.9258448 C85.8906486,54.4926056 87.6566909,53.934908 89.0899301,54.6801924 L89.0899301,54.6801924 L107.182095,64.0881182 C107.797508,64.4081328 108.299372,64.9099967 108.619386,65.5254094 C109.47933,67.1791469 108.835833,69.2168881 107.182095,70.0768316 L107.182095,70.0768316 L89.0899301,79.4847574 C88.67313,79.7014935 88.2102573,79.8146482 87.7404734,79.8146482 C86.1250405,79.8146482 84.8154734,78.5050811 84.8154734,76.8896482 L84.8154734,76.8896482 L84.8154734,57.2753015 C84.8154734,56.8055176 84.9286281,56.342645 85.1453642,55.9258448 Z M69.75,58.625 C70.9926407,58.625 72,59.6323593 72,60.875 L72,68.75 C72,69.9926407 70.9926407,71 69.75,71 L2.25,71 C1.00735931,71 1.52179594e-16,69.9926407 0,68.75 L0,60.875 C-1.52179594e-16,59.6323593 1.00735931,58.625 2.25,58.625 L69.75,58.625 Z M101.250656,29.375 C102.493296,29.375 103.500656,30.3823593 103.500656,31.625 L103.500656,39.5 C103.500656,40.7426407 102.493296,41.75 101.250656,41.75 L2.25,41.75 C1.00735931,41.75 1.52179594e-16,40.7426407 0,39.5 L0,31.625 C-1.52179594e-16,30.3823593 1.00735931,29.375 2.25,29.375 L101.250656,29.375 Z M101.250656,0.125 C102.493296,0.125 103.500656,1.13235931 103.500656,2.375 L103.500656,10.25 C103.500656,11.4926407 102.493296,12.5 101.250656,12.5 L2.25,12.5 C1.00735931,12.5 1.52179594e-16,11.4926407 0,10.25 L0,2.375 C-1.52179594e-16,1.13235931 1.00735931,0.125 2.25,0.125 L101.250656,0.125 Z" id="Combined-Shape" stroke-opacity="0.3" stroke="#000000" stroke-width="1.125" opacity="0.1"></path>
                    </g>
                    <g id="Icon---Subtitle" filter="url(#filter-2)" opacity="0.1" transform="translate(565.000000, 110.500000) rotate(17.000000) translate(-565.000000, -110.500000) translate(465.000000, 26.000000)">
                        <path d="M196,0.891441932 C198.209139,0.891441932 200,2.68230293 200,4.89144193 L200,132.891442 C200,135.100581 198.209139,136.891442 196,136.891442 L94.016,136.891442 L56.5220789,167.12573 C55.6628102,167.818624 54.6084939,168.220725 53.5108326,168.278486 L53.2356021,168.285722 C50.3440589,168.285722 48,165.941663 48,163.05012 L48,163.05012 L48,136.891442 L4,136.891442 C1.790861,136.891442 4.55017892e-13,135.100581 4.54747351e-13,132.891442 L4.54747351e-13,4.89144193 C4.54476809e-13,2.68230293 1.790861,0.891441932 4,0.891441932 L196,0.891441932 Z M171.2,22.8914419 L28.8,22.8914419 C26.1490332,22.8914419 24,25.0404751 24,27.6914419 L24,27.6914419 L24,110.091442 C24,112.742409 26.1490332,114.891442 28.8,114.891442 L28.8,114.891442 L171.2,114.891442 C173.850967,114.891442 176,112.742409 176,110.091442 L176,110.091442 L176,27.6914419 C176,25.0404751 173.850967,22.8914419 171.2,22.8914419 L171.2,22.8914419 Z M148.624473,67 C150.488725,67 152,68.5112751 152,70.3755274 L152,85.6244726 C152,87.4887249 150.488725,89 148.624473,89 L51.3755274,89 C49.5112751,89 48,87.4887249 48,85.6244726 L48,70.3755274 C48,68.5112751 49.5112751,67 51.3755274,67 L148.624473,67 Z" id="Combined-Shape" fill-opacity="0.9" fill="#FFFFFF" opacity="0.429361979"></path>
                        <path d="M196,0.891441932 C198.209139,0.891441932 200,2.68230293 200,4.89144193 L200,132.891442 C200,135.100581 198.209139,136.891442 196,136.891442 L94.016,136.891442 L56.5220789,167.12573 C55.6628102,167.818624 54.6084939,168.220725 53.5108326,168.278486 L53.2356021,168.285722 C50.3440589,168.285722 48,165.941663 48,163.05012 L48,163.05012 L48,136.891442 L4,136.891442 C1.790861,136.891442 4.55017892e-13,135.100581 4.54747351e-13,132.891442 L4.54747351e-13,4.89144193 C4.54476809e-13,2.68230293 1.790861,0.891441932 4,0.891441932 L196,0.891441932 Z M171.2,22.8914419 L28.8,22.8914419 C26.1490332,22.8914419 24,25.0404751 24,27.6914419 L24,27.6914419 L24,110.091442 C24,112.742409 26.1490332,114.891442 28.8,114.891442 L28.8,114.891442 L171.2,114.891442 C173.850967,114.891442 176,112.742409 176,110.091442 L176,110.091442 L176,27.6914419 C176,25.0404751 173.850967,22.8914419 171.2,22.8914419 L171.2,22.8914419 Z M148.624473,67 C150.488725,67 152,68.5112751 152,70.3755274 L152,85.6244726 C152,87.4887249 150.488725,89 148.624473,89 L51.3755274,89 C49.5112751,89 48,87.4887249 48,85.6244726 L48,70.3755274 C48,68.5112751 49.5112751,67 51.3755274,67 L148.624473,67 Z" id="Combined-Shape" stroke-opacity="0.3" stroke="#000000" stroke-width="2" opacity="0.28"></path>
                    </g>
                    <g id="Icon---More" filter="url(#filter-3)" opacity="0.2" transform="translate(465.000000, 281.000000)">
                        <path d="M8.4,31.2 C9.0627417,31.2 9.6,31.7372583 9.6,32.4 L9.6,39.6 C9.6,40.2627417 9.0627417,40.8 8.4,40.8 L1.2,40.8 C0.5372583,40.8 3.03207055e-16,40.2627417 0,39.6 L0,32.4 C1.40882155e-16,31.7372583 0.5372583,31.2 1.2,31.2 L8.4,31.2 Z M51.6,31.2 C52.2627417,31.2 52.8,31.7372583 52.8,32.4 L52.8,39.6 C52.8,40.2627417 52.2627417,40.8 51.6,40.8 L44.4,40.8 C43.7372583,40.8 43.2,40.2627417 43.2,39.6 L43.2,32.4 C43.2,31.7372583 43.7372583,31.2 44.4,31.2 L51.6,31.2 Z M30,31.2 C30.6627417,31.2 31.2,31.7372583 31.2,32.4 L31.2,39.6 C31.2,40.2627417 30.6627417,40.8 30,40.8 L22.8,40.8 C22.1372583,40.8 21.6,40.2627417 21.6,39.6 L21.6,32.4 C21.6,31.7372583 22.1372583,31.2 22.8,31.2 L30,31.2 Z M8.4,15.6 C9.0627417,15.6 9.6,16.1372583 9.6,16.8 L9.6,24 C9.6,24.6627417 9.0627417,25.2 8.4,25.2 L1.2,25.2 C0.5372583,25.2 3.03207055e-16,24.6627417 0,24 L0,16.8 C1.40882155e-16,16.1372583 0.5372583,15.6 1.2,15.6 L8.4,15.6 Z M51.6,15.6 C52.2627417,15.6 52.8,16.1372583 52.8,16.8 L52.8,24 C52.8,24.6627417 52.2627417,25.2 51.6,25.2 L44.4,25.2 C43.7372583,25.2 43.2,24.6627417 43.2,24 L43.2,16.8 C43.2,16.1372583 43.7372583,15.6 44.4,15.6 L51.6,15.6 Z M30,15.6 C30.6627417,15.6 31.2,16.1372583 31.2,16.8 L31.2,24 C31.2,24.6627417 30.6627417,25.2 30,25.2 L22.8,25.2 C22.1372583,25.2 21.6,24.6627417 21.6,24 L21.6,16.8 C21.6,16.1372583 22.1372583,15.6 22.8,15.6 L30,15.6 Z M8.4,0 C9.0627417,-1.21743675e-16 9.6,0.5372583 9.6,1.2 L9.6,8.4 C9.6,9.0627417 9.0627417,9.6 8.4,9.6 L1.2,9.6 C0.5372583,9.6 3.03207055e-16,9.0627417 0,8.4 L0,1.2 C1.40882155e-16,0.5372583 0.5372583,3.4378828e-16 1.2,0 L8.4,0 Z M51.6,0 C52.2627417,-1.21743675e-16 52.8,0.5372583 52.8,1.2 L52.8,8.4 C52.8,9.0627417 52.2627417,9.6 51.6,9.6 L44.4,9.6 C43.7372583,9.6 43.2,9.0627417 43.2,8.4 L43.2,1.2 C43.2,0.5372583 43.7372583,3.4378828e-16 44.4,0 L51.6,0 Z M30,0 C30.6627417,-1.21743675e-16 31.2,0.5372583 31.2,1.2 L31.2,8.4 C31.2,9.0627417 30.6627417,9.6 30,9.6 L22.8,9.6 C22.1372583,9.6 21.6,9.0627417 21.6,8.4 L21.6,1.2 C21.6,0.5372583 22.1372583,3.4378828e-16 22.8,0 L30,0 Z" id="Icon---More---Invalid" fill-opacity="0.5" fill="#FFFFFF"></path>
                        <path d="M8.4,31.2 C9.0627417,31.2 9.6,31.7372583 9.6,32.4 L9.6,39.6 C9.6,40.2627417 9.0627417,40.8 8.4,40.8 L1.2,40.8 C0.5372583,40.8 3.03207055e-16,40.2627417 0,39.6 L0,32.4 C1.40882155e-16,31.7372583 0.5372583,31.2 1.2,31.2 L8.4,31.2 Z M51.6,31.2 C52.2627417,31.2 52.8,31.7372583 52.8,32.4 L52.8,39.6 C52.8,40.2627417 52.2627417,40.8 51.6,40.8 L44.4,40.8 C43.7372583,40.8 43.2,40.2627417 43.2,39.6 L43.2,32.4 C43.2,31.7372583 43.7372583,31.2 44.4,31.2 L51.6,31.2 Z M30,31.2 C30.6627417,31.2 31.2,31.7372583 31.2,32.4 L31.2,39.6 C31.2,40.2627417 30.6627417,40.8 30,40.8 L22.8,40.8 C22.1372583,40.8 21.6,40.2627417 21.6,39.6 L21.6,32.4 C21.6,31.7372583 22.1372583,31.2 22.8,31.2 L30,31.2 Z M8.4,15.6 C9.0627417,15.6 9.6,16.1372583 9.6,16.8 L9.6,24 C9.6,24.6627417 9.0627417,25.2 8.4,25.2 L1.2,25.2 C0.5372583,25.2 3.03207055e-16,24.6627417 0,24 L0,16.8 C1.40882155e-16,16.1372583 0.5372583,15.6 1.2,15.6 L8.4,15.6 Z M51.6,15.6 C52.2627417,15.6 52.8,16.1372583 52.8,16.8 L52.8,24 C52.8,24.6627417 52.2627417,25.2 51.6,25.2 L44.4,25.2 C43.7372583,25.2 43.2,24.6627417 43.2,24 L43.2,16.8 C43.2,16.1372583 43.7372583,15.6 44.4,15.6 L51.6,15.6 Z M30,15.6 C30.6627417,15.6 31.2,16.1372583 31.2,16.8 L31.2,24 C31.2,24.6627417 30.6627417,25.2 30,25.2 L22.8,25.2 C22.1372583,25.2 21.6,24.6627417 21.6,24 L21.6,16.8 C21.6,16.1372583 22.1372583,15.6 22.8,15.6 L30,15.6 Z M8.4,0 C9.0627417,-1.21743675e-16 9.6,0.5372583 9.6,1.2 L9.6,8.4 C9.6,9.0627417 9.0627417,9.6 8.4,9.6 L1.2,9.6 C0.5372583,9.6 3.03207055e-16,9.0627417 0,8.4 L0,1.2 C1.40882155e-16,0.5372583 0.5372583,3.4378828e-16 1.2,0 L8.4,0 Z M51.6,0 C52.2627417,-1.21743675e-16 52.8,0.5372583 52.8,1.2 L52.8,8.4 C52.8,9.0627417 52.2627417,9.6 51.6,9.6 L44.4,9.6 C43.7372583,9.6 43.2,9.0627417 43.2,8.4 L43.2,1.2 C43.2,0.5372583 43.7372583,3.4378828e-16 44.4,0 L51.6,0 Z M30,0 C30.6627417,-1.21743675e-16 31.2,0.5372583 31.2,1.2 L31.2,8.4 C31.2,9.0627417 30.6627417,9.6 30,9.6 L22.8,9.6 C22.1372583,9.6 21.6,9.0627417 21.6,8.4 L21.6,1.2 C21.6,0.5372583 22.1372583,3.4378828e-16 22.8,0 L30,0 Z" id="Icon---More---Border" stroke-opacity="0.3" stroke="#000000" stroke-width="0.6" opacity="0.28"></path>
                    </g>
                    <g id="Icon---Mute" opacity="0.1" transform="translate(154.000000, 74.000000) rotate(45.000000) translate(-154.000000, -74.000000) ">
                        <use fill="black" fill-opacity="1" filter="url(#filter-5)" xlink:href="#path-4"></use>
                        <use fill-opacity="0.3" fill="#FFFFFF" fill-rule="evenodd" xlink:href="#path-4"></use>
                    </g>
                </g>
            </g>
        </g>
    </g>
</svg>

<svg width="540" height="327" xmlns="http://www.w3.org/2000/svg" xmlns:xlink="http://www.w3.org/1999/xlink">
    <defs>
        <filter x="-15.5%" y="-21.2%" width="130%" height="142.5%" filterUnits="objectBoundingBox" id="a">
            <feOffset dy="3" in="SourceAlpha" result="shadowOffsetOuter1"/>
            <feGaussianBlur stdDeviation="2.5" in="shadowOffsetOuter1" result="shadowBlurOuter1"/>
            <feColorMatrix values="0 0 0 0 1 0 0 0 0 1 0 0 0 0 1 0 0 0 0.1 0" in="shadowBlurOuter1" result="shadowMatrixOuter1"/>
            <feMerge>
                <feMergeNode in="shadowMatrixOuter1"/>
                <feMergeNode in="SourceGraphic"/>
            </feMerge>
        </filter>
        <filter x="-12%" y="-14.2%" width="124%" height="128.4%" filterUnits="objectBoundingBox" id="b">
            <feOffset dy="4" in="SourceAlpha" result="shadowOffsetOuter1"/>
            <feGaussianBlur stdDeviation="4" in="shadowOffsetOuter1" result="shadowBlurOuter1"/>
            <feColorMatrix values="0 0 0 0 0 0 0 0 0 0 0 0 0 0 0 0 0 0 0.1 0" in="shadowBlurOuter1" result="shadowMatrixOuter1"/>
            <feMerge>
                <feMergeNode in="shadowMatrixOuter1"/>
                <feMergeNode in="SourceGraphic"/>
            </feMerge>
        </filter>
        <filter x="-14.2%" y="-18.3%" width="128.3%" height="136.6%" filterUnits="objectBoundingBox" id="c">
            <feOffset dy="1" in="SourceAlpha" result="shadowOffsetOuter1"/>
            <feGaussianBlur stdDeviation="1" in="shadowOffsetOuter1" result="shadowBlurOuter1"/>
            <feColorMatrix values="0 0 0 0 0 0 0 0 0 0 0 0 0 0 0 0 0 0 0.1 0" in="shadowBlurOuter1" result="shadowMatrixOuter1"/>
            <feMerge>
                <feMergeNode in="shadowMatrixOuter1"/>
                <feMergeNode in="SourceGraphic"/>
            </feMerge>
        </filter>
        <filter x="-10.3%" y="-7.4%" width="120.6%" height="120.6%" filterUnits="objectBoundingBox" id="d">
            <feOffset dy="1" in="SourceAlpha" result="shadowOffsetOuter1"/>
            <feGaussianBlur stdDeviation="1" in="shadowOffsetOuter1" result="shadowBlurOuter1"/>
            <feComposite in="shadowBlurOuter1" in2="SourceAlpha" operator="out" result="shadowBlurOuter1"/>
            <feColorMatrix values="0 0 0 0 0 0 0 0 0 0 0 0 0 0 0 0 0 0 0.1 0" in="shadowBlurOuter1"/>
        </filter>
        <path d="M159.757 57a.45.45 0 01.45.45V68.5h10.343a.45.45 0 01.45.45v10.1a.45.45 0 01-.45.45h-10.343v11.05a.45.45 0 01-.45.45h-10.1a.45.45 0 01-.45-.45V79.5H137.45a.45.45 0 01-.45-.45v-10.1a.45.45 0 01.45-.45h11.757V57.45a.45.45 0 01.45-.45h10.1z" id="e"/>
    </defs>
    <g fill="none" fill-rule="evenodd" opacity=".7">
        <g filter="url(#a)" opacity=".072" transform="translate(-25 153)">
            <path d="M85.145 55.926a2.925 2.925 0 013.945-1.246l18.092 9.408a3.375 3.375 0 010 5.989L89.09 79.485a2.925 2.925 0 01-4.275-2.595V57.275c0-.47.114-.932.33-1.35zM69.75 58.625a2.25 2.25 0 012.25 2.25v7.875A2.25 2.25 0 0169.75 71H2.25A2.25 2.25 0 010 68.75v-7.875a2.25 2.25 0 012.25-2.25h67.5zm31.5-29.25a2.25 2.25 0 012.25 2.25V39.5a2.25 2.25 0 01-2.25 2.25h-99A2.25 2.25 0 010 39.5v-7.875a2.25 2.25 0 012.25-2.25h99zm0-29.25a2.25 2.25 0 012.25 2.25v7.875a2.25 2.25 0 01-2.25 2.25h-99A2.25 2.25 0 010 10.25V2.375A2.25 2.25 0 012.25.125h99z" fill-opacity=".9" fill="#FFF"/>
            <path d="M85.145 55.926a2.925 2.925 0 013.945-1.246h0l18.092 9.408a3.375 3.375 0 010 5.989h0L89.09 79.485a2.925 2.925 0 01-4.275-2.595h0V57.275c0-.47.114-.932.33-1.35zM69.75 58.625a2.25 2.25 0 012.25 2.25v7.875A2.25 2.25 0 0169.75 71H2.25A2.25 2.25 0 010 68.75v-7.875a2.25 2.25 0 012.25-2.25h67.5zm31.5-29.25a2.25 2.25 0 012.25 2.25V39.5a2.25 2.25 0 01-2.25 2.25h-99A2.25 2.25 0 010 39.5v-7.875a2.25 2.25 0 012.25-2.25h99zm0-29.25a2.25 2.25 0 012.25 2.25v7.875a2.25 2.25 0 01-2.25 2.25h-99A2.25 2.25 0 010 10.25V2.375A2.25 2.25 0 012.25.125h99z" stroke-opacity=".3" stroke="#000" stroke-width="1.125" opacity=".1"/>
        </g>
        <g filter="url(#b)" opacity=".1" transform="rotate(17 226.324 1570.554)">
            <path d="M196 .891a4 4 0 014 4v128a4 4 0 01-4 4H94.016l-37.494 30.235a5.236 5.236 0 01-3.011 1.152l-.275.008A5.236 5.236 0 0148 163.05v-26.159H4a4 4 0 01-4-4v-128a4 4 0 014-4h192zm-24.8 22H28.8a4.8 4.8 0 00-4.8 4.8v82.4a4.8 4.8 0 004.8 4.8h142.4a4.8 4.8 0 004.8-4.8v-82.4a4.8 4.8 0 00-4.8-4.8zM148.624 67A3.376 3.376 0 01152 70.376v15.248A3.376 3.376 0 01148.624 89H51.376A3.376 3.376 0 0148 85.624V70.376A3.376 3.376 0 0151.376 67h97.248z" fill-opacity=".9" fill="#FFF" opacity=".429"/>
            <path d="M196 .891a4 4 0 014 4v128a4 4 0 01-4 4H94.016l-37.494 30.235a5.236 5.236 0 01-3.011 1.152l-.275.008A5.236 5.236 0 0148 163.05h0v-26.159H4a4 4 0 01-4-4v-128a4 4 0 014-4h192zm-24.8 22H28.8a4.8 4.8 0 00-4.8 4.8h0v82.4a4.8 4.8 0 004.8 4.8h142.4a4.8 4.8 0 004.8-4.8h0v-82.4a4.8 4.8 0 00-4.8-4.8h0zM148.624 67A3.376 3.376 0 01152 70.376v15.248A3.376 3.376 0 01148.624 89H51.376A3.376 3.376 0 0148 85.624V70.376A3.376 3.376 0 0151.376 67h97.248z" stroke-opacity=".3" stroke="#000" stroke-width="2" opacity=".28"/>
        </g>
        <g filter="url(#c)" opacity=".2" transform="translate(440 283)">
            <path d="M8.4 31.2a1.2 1.2 0 011.2 1.2v7.2a1.2 1.2 0 01-1.2 1.2H1.2A1.2 1.2 0 010 39.6v-7.2a1.2 1.2 0 011.2-1.2h7.2zm43.2 0a1.2 1.2 0 011.2 1.2v7.2a1.2 1.2 0 01-1.2 1.2h-7.2a1.2 1.2 0 01-1.2-1.2v-7.2a1.2 1.2 0 011.2-1.2h7.2zm-21.6 0a1.2 1.2 0 011.2 1.2v7.2a1.2 1.2 0 01-1.2 1.2h-7.2a1.2 1.2 0 01-1.2-1.2v-7.2a1.2 1.2 0 011.2-1.2H30zM8.4 15.6a1.2 1.2 0 011.2 1.2V24a1.2 1.2 0 01-1.2 1.2H1.2A1.2 1.2 0 010 24v-7.2a1.2 1.2 0 011.2-1.2h7.2zm43.2 0a1.2 1.2 0 011.2 1.2V24a1.2 1.2 0 01-1.2 1.2h-7.2a1.2 1.2 0 01-1.2-1.2v-7.2a1.2 1.2 0 011.2-1.2h7.2zm-21.6 0a1.2 1.2 0 011.2 1.2V24a1.2 1.2 0 01-1.2 1.2h-7.2a1.2 1.2 0 01-1.2-1.2v-7.2a1.2 1.2 0 011.2-1.2H30zM8.4 0a1.2 1.2 0 011.2 1.2v7.2a1.2 1.2 0 01-1.2 1.2H1.2A1.2 1.2 0 010 8.4V1.2A1.2 1.2 0 011.2 0h7.2zm43.2 0a1.2 1.2 0 011.2 1.2v7.2a1.2 1.2 0 01-1.2 1.2h-7.2a1.2 1.2 0 01-1.2-1.2V1.2A1.2 1.2 0 0144.4 0h7.2zM30 0a1.2 1.2 0 011.2 1.2v7.2A1.2 1.2 0 0130 9.6h-7.2a1.2 1.2 0 01-1.2-1.2V1.2A1.2 1.2 0 0122.8 0H30z" fill-opacity=".5" fill="#FFF"/>
            <path d="M8.4 31.2a1.2 1.2 0 011.2 1.2v7.2a1.2 1.2 0 01-1.2 1.2H1.2A1.2 1.2 0 010 39.6v-7.2a1.2 1.2 0 011.2-1.2h7.2zm43.2 0a1.2 1.2 0 011.2 1.2v7.2a1.2 1.2 0 01-1.2 1.2h-7.2a1.2 1.2 0 01-1.2-1.2v-7.2a1.2 1.2 0 011.2-1.2h7.2zm-21.6 0a1.2 1.2 0 011.2 1.2v7.2a1.2 1.2 0 01-1.2 1.2h-7.2a1.2 1.2 0 01-1.2-1.2v-7.2a1.2 1.2 0 011.2-1.2H30zM8.4 15.6a1.2 1.2 0 011.2 1.2V24a1.2 1.2 0 01-1.2 1.2H1.2A1.2 1.2 0 010 24v-7.2a1.2 1.2 0 011.2-1.2h7.2zm43.2 0a1.2 1.2 0 011.2 1.2V24a1.2 1.2 0 01-1.2 1.2h-7.2a1.2 1.2 0 01-1.2-1.2v-7.2a1.2 1.2 0 011.2-1.2h7.2zm-21.6 0a1.2 1.2 0 011.2 1.2V24a1.2 1.2 0 01-1.2 1.2h-7.2a1.2 1.2 0 01-1.2-1.2v-7.2a1.2 1.2 0 011.2-1.2H30zM8.4 0a1.2 1.2 0 011.2 1.2v7.2a1.2 1.2 0 01-1.2 1.2H1.2A1.2 1.2 0 010 8.4V1.2A1.2 1.2 0 011.2 0h7.2zm43.2 0a1.2 1.2 0 011.2 1.2v7.2a1.2 1.2 0 01-1.2 1.2h-7.2a1.2 1.2 0 01-1.2-1.2V1.2A1.2 1.2 0 0144.4 0h7.2zM30 0a1.2 1.2 0 011.2 1.2v7.2A1.2 1.2 0 0130 9.6h-7.2a1.2 1.2 0 01-1.2-1.2V1.2A1.2 1.2 0 0122.8 0H30z" stroke-opacity=".3" stroke="#000" stroke-width=".6" opacity=".28"/>
        </g>
        <g opacity=".1" transform="rotate(45 139.086 44.822)">
            <use fill="#000" filter="url(#d)" xlink:href="#e"/>
            <use fill-opacity=".3" fill="#FFF" xlink:href="#e"/>
        </g>
    </g>
</svg>
